src/basic/900/u25CB-circle.svg

<svg width="6" height="8" viewBox="0 0 6 8" fill="none" xmlns="http://www.w3.org/2000/svg">
<path fill-rule="evenodd" clip-rule="evenodd" d="M3,2c-1.10457,0 -2,0.89543 -2,2c0,1.10457 0.89543,2 2,2c1.10457,0 2,-0.89543 2,-2c0,-1.10457 -0.89543,-2 -2,-2zM0,4c0,-1.65685 1.34315,-3 3,-3c1.65685,0 3,1.34315 3,3c0,1.65685 -1.34315,3 -3,3c-1.65685,0 -3,-1.34315 -3,-3z" fill="black"/>
</svg>

<svg width="6" height="8" viewBox="0 0 6 8" fill="none" xmlns="http://www.w3.org/2000/svg">
<path fill-rule="evenodd" clip-rule="evenodd" d="M3 2C1.89543 2 1 2.89543 1 4C1 5.10457 1.89543 6 3 6C4.10457 6 5 5.10457 5 4C5 2.89543 4.10457 2 3 2ZM0 4C0 2.34315 1.34315 1 3 1C4.65685 1 6 2.34315 6 4C6 5.65685 4.65685 7 3 7C1.34315 7 0 5.65685 0 4Z" fill="black"/>
</svg>
